material/.icons/material/key-wireless.svg

<svg xmlns="http://www.w3.org/2000/svg" viewBox="0 0 24 24"><path d="M4.93 5.92l1.41 1.41a8 8 0 0111.32 0l1.41-1.41a10 10 0 00-14.14 0m2.83 2.83l1.41 1.41a4 4 0 015.66 0l1.41-1.41a6 6 0 00-8.48 0m3 6.25a4.5 4.5 0 100 3H15v3h3v-3h4v-3M6.5 18A1.5 1.5 0 118 16.5 1.5 1.5 0 016.5 18z"/></svg>

<?xml version="1.0" encoding="UTF-8"?><!DOCTYPE svg PUBLIC "-//W3C//DTD SVG 1.1//EN" "http://www.w3.org/Graphics/SVG/1.1/DTD/svg11.dtd"><svg xmlns="http://www.w3.org/2000/svg" xmlns:xlink="http://www.w3.org/1999/xlink" version="1.1" id="mdi-key-wireless" width="24" height="24" viewBox="0 0 24 24"><path d="M4.93 5.92L6.34 7.33A8 8 0 0 1 17.66 7.33L19.07 5.92A10 10 0 0 0 4.93 5.92M7.76 8.75L9.17 10.16A4 4 0 0 1 14.83 10.16L16.24 8.75A6 6 0 0 0 7.76 8.75M10.76 15A4.5 4.5 0 1 0 10.76 18H15V21H18V18H22V15M6.5 18A1.5 1.5 0 1 1 8 16.5A1.5 1.5 0 0 1 6.5 18Z" /></svg>
